Assets/Icons/interaction/clock.svg

<svg enable-background="new 0 0 60 60" viewBox="0 0 60 60" xmlns="http://www.w3.org/2000/svg"><path d="m30 1.5c-15.71 0-28.5 12.79-28.5 28.5s12.79 28.5 28.5 28.5 28.5-12.79 28.5-28.5-12.79-28.5-28.5-28.5zm0 54c-14.06 0-25.5-11.44-25.5-25.5s11.44-25.5 25.5-25.5 25.5 11.44 25.5 25.5-11.44 25.5-25.5 25.5z"/><path d="m31.5 29.38v-17.88c0-.28-.22-.5-.5-.5-1.38 0-2.5 1.12-2.5 2.5v16.29c0 .53.21 1.04.59 1.41l8.5 8.5c.2.2.51.2.71 0 .98-.98.98-2.56 0-3.54z"/></svg>

<?xml version="1.0" encoding="utf-8"?>
<!-- Generator: Adobe Illustrator 21.1.0, SVG Export Plug-In . SVG Version: 6.00 Build 0)  -->
<svg version="1.1" id="eps" xmlns="http://www.w3.org/2000/svg" xmlns:xlink="http://www.w3.org/1999/xlink" x="0px" y="0px"
	 viewBox="0 0 60 60" style="enable-background:new 0 0 60 60;" xml:space="preserve">
<g>
	<path d="M30,1.5C14.29,1.5,1.5,14.29,1.5,30S14.29,58.5,30,58.5S58.5,45.71,58.5,30S45.71,1.5,30,1.5z M30,55.5
		C15.94,55.5,4.5,44.06,4.5,30S15.94,4.5,30,4.5S55.5,15.94,55.5,30S44.06,55.5,30,55.5z"/>
	<path d="M31.5,29.38V11.5c0-0.28-0.22-0.5-0.5-0.5c-1.38,0-2.5,1.12-2.5,2.5v16.29c0,0.53,0.21,1.04,0.59,1.41l8.5,8.5
		c0.2,0.2,0.51,0.2,0.71,0c0.98-0.98,0.98-2.56,0-3.54L31.5,29.38z"/>
</g>
</svg>
